**kern	**kern	**dynam
*part1	*part1	*part1
*staff2	*staff1	*
*I"Piano	*	*
*clefF4	*clefG2	*
*k[f#c#]	*k[f#c#]	*
*M2/4	*M2/4	*
=1	=1	=1
*^	*	*
4A	4AA 4C# 4G	4Ayy 4e 4a	.
*v	*v	*	*
4r	4r	.
=	=	=
2r	2r	.
=	=	=
8qDD/	.	p
[2D	8r	.
.	8AL<	.
.	8f# 8a	.
.	8AJ<	.
=	=	=
2D]	(8gL 8b	.
.	8f# 8a	.
.	8g 8b	.
.	8aJ) 8cc#	.
=	=	=
8qDD/	.	.
[2D	8f#L 8a	.
.	8A<	.
.	8d 8f#	.
.	8AJ<	.
=	=	=
2D]	8dL 8f#	.
.	8A<	.
.	8d 8f#	.
.	8BJ 8g	.
=	=	=
2AA	8c#L 8e	.
.	8A<	.
.	8c# 8g	.
.	8AJ<	.
=	=	=
2D	8dL 8f#	.
.	8A<	.
.	8f#	.
.	8AJ<	.
=	=	=
*-	*-	*-
!!!system-decoration: {(s1,s2)}
!!!RDF**kern: < = below
